icons/youtube.svg

<svg width="24" height="24" xmlns="http://www.w3.org/2000/svg" viewBox="0 0 24 24"><title>youtube</title><g class="nc-icon-wrapper" fill="none" stroke-width="1.5"><path d="M14 12L10.5 14V10L14 12Z" fill="#ffffff" stroke="#ffffff" stroke-linecap="round" stroke-linejoin="round"></path><path d="M2 12.7075V11.2924C2 8.39705 2 6.94939 2.90549 6.01792C3.81099 5.08645 5.23656 5.04613 8.08769 4.96549C9.43873 4.92728 10.8188 4.8999 12 4.8999C13.1812 4.8999 14.5613 4.92728 15.9123 4.96549C18.7634 5.04613 20.189 5.08645 21.0945 6.01792C22 6.94939 22 8.39705 22 11.2924V12.7075C22 15.6028 22 17.0505 21.0945 17.9819C20.189 18.9134 18.7635 18.9537 15.9124 19.0344C14.5613 19.0726 13.1812 19.1 12 19.1C10.8188 19.1 9.43867 19.0726 8.0876 19.0344C5.23651 18.9537 3.81097 18.9134 2.90548 17.9819C2 17.0505 2 15.6028 2 12.7075Z" stroke="#ffffff" stroke-width="1.5"></path></g></svg>

<svg fill="none" stroke="currentColor" stroke-linecap="round" stroke-linejoin="round" stroke-width="1.5" viewBox="0 0 24 24"><path fill="currentColor" d="m14 12-3.5 2v-4z"/><path d="M2 12.708v-1.416c0-2.895 0-4.343.905-5.274.906-.932 2.332-.972 5.183-1.053C9.438 4.927 10.818 4.9 12 4.9s2.561.027 3.912.065c2.851.081 4.277.121 5.182 1.053S22 8.398 22 11.292v1.415c0 2.896 0 4.343-.905 5.275-.906.931-2.331.972-5.183 1.052-1.35.039-2.73.066-3.912.066s-2.561-.027-3.912-.066c-2.851-.08-4.277-.12-5.183-1.052S2 15.602 2 12.708"/></svg>
